X: 1
T: Jack's The Lad
T: The Sailor's Hornpipe
T: The College Hornpipe
M: 4/4
L: 1/8
R: hornpipe
K: Gmaj
GF|G2G,2 G,2DC|B,DGF GBAG|A2A,2 A,2AG|FAd2 d2ef|
gfed edcB|cBAG GFED|EGFA GBAc|B2G2 G2:|
|:DC|B,DGD B,DGD|E2C2 C2ED|^CEAE CEAE|F2D2 D2AB|
cBcd edcB|cBAG GFED|EGFA GBAc|B2G2 G2:|
